X:1
T:Sally Free and Easy
M:4/4
L:1/8
K:D
 z2 d2- dA =cB| A D3- D4| d3 A=c-BA-G| A8| z2 d2- dA =cB| A D3- D4|\
 d3 A=c-BA-G| A6 FA| =c2 A2 G =C3-| =C4 EG AG| D6 z2| z8|
